X: 8553
T: Cricket's March Over The Salt Box, The
R: jig
M: 6/8
K: Dmajor
DED FED|F2Ad2A|{A}BcdA2F|E2DB3|
DED FED|F2Ad2A|{A}Bcd AGF|1 E2{FE}DD3:|2 E2{FE}DD2B||
A2F FEF|d2B BAB|f2B BAB|a2f fef|
gfe fed|deAd2A|{A}BcdA2F|1 E2{FE} DD2B:|2 E2{FE}DD2||

